**kern	**silbe	**kern	**silbe
*ICvox	*	*ICvox	*
=1	=1	=1	=1
*E:	*	*E:	*
*M4/4	*	*M4/4	*
*clefF4	*	*clefF4	*
1r	.	1r	.
=2	=2	=2	=2
1r	.	1r	.
=3	=3	=3	=3
1r	.	1r	.
=4	=4	=4	=4
2r	.	2r	.
4r	.	4r	.
8r	.	8r	.
8e	Whoa	8c#	Whoa
=5	=5	=5	=5
4d#	...	4B	...
4r	.	4r	.
8r	.	8r	.
[8d#	Oh	[8B	Oh
8.d#]	,	8.B]	,
[16c#	mer	[16B	mer
=6	=6	=6	=6
16c#]	_	16B]	_
8A	cy,	8G#	cy,
[16B	mer	[16G#	mer
16B]	_	16G#]	_
8G#	cy	8E	cy
[16B	me	[16E	me
4B]	_	4E]	_
4r	.	4r	.
=7	=7	=7	=7
4r	.	4r	.
4r	.	4r	.
8r	.	8r	.
[8d#	Oh	[8B	Oh
8.d#]	,	8.B]	,
[16d#	things	[16B	things
=8	=8	=8	=8
16d#]	_	16B]	_
8B	ain't	8G#	ain't
[16B	what	[16G#	what
16B]	_	16G#]	_
8G#	they	8E	they
[16G#	used	[16E	used
16G#]	_	16E]	_
8E	to	8C#	to
[16E	be	[16C#	be
16E]	_	16C#]	_
[8.c#	no	16r	.
.	.	16G#	no
.	.	[16A	_
=9	=9	=9	=9
8.c#]	,	8.A]	_
16B	no	16G#	no
16G#	_	16E	_
8.r	.	8.r	.
8r	.	8r	.
[8c#	Where	[8A	Where
8c#]	_	8A]	_
16B	did	16G#	did
[16G#	all	[16E	all
=10	=10	=10	=10
16G#]	_	16E]	_
8A	the	8F#	the
[16B	blue	[16G#	blue
8.B]	_	8.G#]	_
[16c#	skies	[16A	skies
8.c#]	_	8.A]	_
[16G#	go	[16E	go
16G#]	?	16E]	?
8.r	.	8.r	.
=11	=11	=11	=11
8r	.	8r	.
[8B	Poi	[8G#	Poi
8B]	_	8G#]	_
16A	son	16F#	son
[16G#	is	[16E	is
16G#]	_	16E]	_
8A	the	8F#	the
[16G#	wind	[16E	wind
16G#]	_	16E]	_
8E	that	8C#	that
[16E	blows	[16C#	blows
=12	=12	=12	=12
8E]	_	8C#]	_
8r	.	8r	.
8E	from	8C#	from
16F#	the	16D#	the
[16G#	north	[16E	north
16G#]	_	16E]	_
8E	and	8C#	and
[16E	south	[16C#	south
16E]	_	16C#]	_
16F#	and	16D#	and
8E	east.	8C#	east.
=13	=13	=13	=13
4r	.	4r	.
4r	.	16r	.
.	.	[8.F#	(vocalizing)
8r	.	2F#]	_
16e	Whoa	.	.
[16d#	_	.	.
8.d#]	,	.	.
[16d#	mer	.	.
=14	=14	=14	=14
16d#]	_	2r	.
8B	cy,	.	.
[16B	mer	.	.
16B]	_	.	.
8G#	cy,	.	.
[16c#	me	.	.
8.c#]	_	8r	.
.	.	[8F#	Oh
[16B	_	.	.
4B]	_	8.F#]	,
.	.	[16F#	mer
=15	=15	=15	=15
4r	.	16F#]	_
.	.	8E	cy.
.	.	16r	.
4r	.	4r	.
8r	.	2r	.
[8d#	Oh	.	.
8.d#]	,	.	.
[16d#	things	.	.
=16	=16	=16	=16
16d#]	_	2r	.
8B	ain't	.	.
[16B	what	.	.
16B]	_	.	.
8G#	they	.	.
[16G#	used	.	.
16G#]	_	4r	.
8E	to	.	.
[16E	be	.	.
16E]	,	16r	.
[8.c#	no	8E	(vocalizing)
.	.	[16F#	_
=17	=17	=17	=17
8.c#]	,	16F#]	_
.	.	8E	_
16B	no	[16F#	_
16G#	_	8.F#]	_
8.r	.	.	.
.	.	16G#	_
8r	.	4r	.
[8c#	Oil	.	.
8.c#]	_	16r	.
.	.	8F#	Have
[16B	was	[16F#	mer
=18	=18	=18	=18
16B]	_	16F#]	_
8G#	ted	8E	cy.
[16G#	on	16r	.
16G#]	_	4r	.
8A	the	.	.
[16G#	o	.	.
16G#]	_	2r	.
8F#	cean,	.	.
16r	.	.	.
16E	and	.	.
8F#	u-	.	.
[16G#	-pon	.	.
=19	=19	=19	=19
16G#]	_	1r	.
[8.B	our	.	.
16B]	_	.	.
8.G#	seas,	.	.
8r	.	.	.
8A	fish	.	.
8G#	full	.	.
16F#	of	.	.
[16G#	mer	.	.
=20	=20	=20	=20
16G#]	_	1r	.
8E	cu-	.	.
16E	-ry	.	.
8C#	_	.	.
8r	.	.	.
8r	.	.	.
[8e	Oh	.	.
8.e]	_	.	.
[16d#	_	.	.
=21	=21	=21	=21
4.d#]	...	1r	.
8r	.	.	.
8r	.	.	.
[8d#	Oh	.	.
8.d#]	,	.	.
[16d#	mer	.	.
=22	=22	=22	=22
16d#]	_	2r	.
8B	cy,	.	.
[16B	mer	.	.
16B]	_	.	.
8G#	cy,	.	.
[16c#	me	.	.
8.c#]	_	8r	.
.	.	8G#	(vocalizing)
[16B	_	.	.
4B_	_	16F#	_
.	.	16G#	_
.	.	16F#	_
.	.	[16F#	_
=23	=23	=23	=23
8B]	_	16F#]	_
.	.	8E	_
8r	.	.	.
.	.	[16F#	_
4r	.	16F#]	_
.	.	8G#	_
.	.	16r	.
8r	.	2r	.
[8d#	Oh,	.	.
8.d#]	_	.	.
[16d#	things	.	.
=24	=24	=24	=24
16d#]	_	2r	.
8B	ain't	.	.
[16B	what	.	.
16B]	_	.	.
8G#	they	.	.
[16G#	used	.	.
16G#]	_	4r	.
8E	to	.	.
[16E	be	.	.
16E]	,	16r	.
[8.c#	no	8G#	Oh,
.	.	[16F#	help
=25	=25	=25	=25
8.c#]	,	16F#]	_
.	.	8E	us,
16B	no	[16F#	Fa
16G#	_	16F#]	_
8.r	.	16G#	ther.
.	.	16r	.
.	.	16%9r	.
8r	.	.	.
[8c#	Ra	.	.
8c#]	_	.	.
16B	di-	.	.
[16G#	-a	.	.
=26	=26	=26	=26
16G#]	_	1r	.
8A	tion	.	.
[16G#	un	.	.
16G#]	_	.	.
8A	der-	.	.
[16B	-ground	.	.
8B]	_	.	.
16B	and	.	.
[16B	in	.	.
16B]	_	.	.
[8.c#	the	.	.
=27	=27	=27	=27
8.c#]	_	1r	.
[16G#	sky	.	.
16G#]	,	.	.
16r	.	.	.
[8G#	a	.	.
8G#]	_	.	.
16A	ni-	.	.
[16G#	-mals	.	.
16G#]	_	.	.
8A	and	.	.
[16G#	birds	.	.
=28	=28	=28	=28
16G#]	_	2r	.
8A	who	.	.
[16B	live	.	.
16B]	_	.	.
8B	near-	.	.
[16G#	-by	.	.
16G#]	_	8r	.
[8.G#	are	.	.
.	.	16E	(vocalizing)
.	.	[16F#	_
8.G#]	_	16F#]	_
.	.	8.G#	_
16E	dy-	.	.
=29	=29	=29	=29
16C#	-ing.	8F#	Help
8.r	.	.	.
.	.	16E	us,
.	.	[16F#	Fa
4r	.	16F#]	_
.	.	8G#	ther.
.	.	16r	.
8r	.	8r	.
[8d#	Oh	[8G#	(vocalizing)
8.d#]	,	8.G#]	_
[16d#	mer	16B	_
=30	=30	=30	=30
16d#]	_	8r	.
8B	cy,	.	.
.	.	16r	.
[16B	mer	16G#	_
16B]	_	8r	.
8G#	cy,	.	.
.	.	16r	.
[16c#	me	[16F#	_
4c#_	_	4F#]	_
16c#]	_	4r	.
8.B	_	.	.
=31	=31	=31	=31
4r	.	8F#	Help
.	.	16E	us,
.	.	[16F#	Fa
4r	.	16F#]	_
.	.	8G#	ther.
.	.	16r	.
8r	.	16r	.
.	.	[8.G#	Please
[8d#	Oh	.	.
8.d#]	,	16G#]	_
.	.	8F#	have
[16d#	things	[16F#	mer
=32	=32	=32	=32
16d#]	_	16F#]	_
8B	ain't	8E	cy.
[16B	what	16r	.
16B]	_	16r	.
8G#	they	[8.B	Mm
16r	.	.	.
8r	.	4B]	_
[8f#	used	.	.
4f#_	_	16r	.
.	.	8F#	(vocalizing)
.	.	[16F#	_
=33	=33	=33	=33
4f#_	_	16F#]	_
.	.	8F#	_
.	.	[16G#	_
16f#]	_	4G#_	_
8g#	to	.	.
[16e	be	.	.
8.e]	_	8.G#]	_
16r	.	[16F#	_
16r	.	16F#]	_
[8.c#	What	8F#	have
.	.	[16F#	mer
=34	=34	=34	=34
8c#]	_	16F#]	_
.	.	8E	cy,
16B	a-	.	.
[16G#	-bout	[16E	(vocalizing)
16G#]	_	4E]	_
8A	this	.	.
[16G#	o	.	.
16G#]	_	16r	.
8A	ver-	[8.G#	(vocalizing)
[16B	-crow	.	.
8.B]	_	16G#]	_
.	.	8F#	_
[16c#	ded	[16F#	_
=35	=35	=35	=35
16c#]	_	16F#]	_
8G#	land,	[8.E	_
[16B	how	.	.
16B]	_	4E]	_
8G#	much	.	.
[16G#	more	.	.
8G#]	_	8r	.
16A	a-	[8B	Please,
[16G#	-buse	.	.
16G#]	_	8.B]	_
8E	from	.	.
16E	man	[16c#	have
=36	=36	=36	=36
16C#	_	16c#]	_
8.r	.	8G#	mer-
.	.	[16F#	-cy
8.G#	can	8F#]	...
.	.	8r	.
[16G#	she	.	.
8G#]	_	2r	.
16E	stand	.	.
16C#	?	.	.
8r	.	.	.
8e	Woo	.	.
=37	=37	=37	=37
[1d#	_	4r	.
.	.	8r	.
.	.	[8d#	Oh
.	.	4d#_	_
.	.	8.d#]	,
.	.	[16c#	no
=38	=38	=38	=38
4d#]	...	2.c#]	,
4r	.	.	.
8r	.	.	.
[8e	Ooh	.	.
16e]	_	[4c#	no
[8.d#	_	.	.
=39	=39	=39	=39
2d#]	...	16c#]	,
.	.	[8.G#	no,
.	.	8.G#]	,
.	.	[16F#	no,
8r	.	8.F#]	_
[8c#	(vocalizing)	.	.
.	.	[16G#	no,
8.c#]	_	8.G#]	_
[16B	_	[16E	no
=40	=40	=40	=40
16B]	_	16E]	_
[8.G#	_	8.C#	...
4G#]	_	2.r	.
16r	.	.	.
[8.f#	No	.	.
4f#_	_	.	.
=41	=41	=41	=41
16f#]	,	1r	.
[8.g#	no	.	.
8.g#]	,	.	.
[16e	no	.	.
8e]	,	.	.
[8f#	no	.	.
16f#]	,	.	.
8.c#	no...	.	.
=42	=42	=42	=42
8r	.	1r	.
16r	.	.	.
[16c#	My,	.	.
8.c#]	_	.	.
[16B	my	.	.
4B_	_	.	.
8B]	_	.	.
16G#	_	.	.
16F#	,	.	.
=43	=43	=43	=43
8.G#	oh,	1r	.
[16B	my	.	.
4B]	!	.	.
8r	.	.	.
16r	.	.	.
[16B	(Vocalizing)	.	.
16B]	_	.	.
8G#	_	.	.
[16G#	_	.	.
=44	=44	=44	=44
4G#_	_	1r	.
16G#]	_	.	.
8.B	_	.	.
8r	.	.	.
16r	.	.	.
[16B	(vocalizing)	.	.
16B]	_	.	.
8G#	_	.	.
[16G#	_	.	.
=45	=45	=45	=45
8.G#]	_	1r	.
16F#	_	.	.
8r	.	.	.
16r	.	.	.
[16f#	Wee	.	.
8.f#]	_	.	.
[16e	_	.	.
4e]	...	.	.
=46	=46	=46	=46
1r	.	1r	.
=47	=47	=47	=47
1r	.	1r	.
=48	=48	=48	=48
1r	.	1r	.
=49	=49	=49	=49
1r	.	1r	.
=50	=50	=50	=50
1r	.	1r	.
=51	=51	=51	=51
1r	.	1r	.
=52	=52	=52	=52
1r	.	1r	.
=53	=53	=53	=53
1r	.	1r	.
=54	=54	=54	=54
1r	.	1r	.
=55	=55	=55	=55
1r	.	1r	.
=56	=56	=56	=56
1r	.	1r	.
=57	=57	=57	=57
1r	.	1r	.
=58	=58	=58	=58
1r	.	1r	.
=59	=59	=59	=59
1r	.	1r	.
=60	=60	=60	=60
1r	.	1r	.
=61	=61	=61	=61
1r	.	1r	.
=62	=62	=62	=62
1r	.	1r	.
=63	=63	=63	=63
1r	.	1r	.
=64	=64	=64	=64
1r	.	1r	.
=65	=65	=65	=65
1r	.	1r	.
=66	=66	=66	=66
1r	.	1r	.
=67	=67	=67	=67
1r	.	1r	.
=68	=68	=68	=68
1r	.	1r	.
*-	*-	*-	*-
!!!ENC: Nathaniel Condit-Schultz